src/assets/image/cursor-black.svg

<svg width="39" height="39" viewBox="0 0 39 39" fill="none" xmlns="http://www.w3.org/2000/svg">
<g filter="url(#filter0_d)">
<path d="M14.8779 28.7539C15.396 28.9412 16.7444 29.1866 18.1198 27.4437L21.819 22.7626L27.7849 22.9139C29.8308 22.9651 30.5628 21.9736 30.8183 21.3773C31.0737 20.781 31.2841 19.566 29.8347 18.1225L15.9592 4.29412C14.7004 3.04397 13.3025 2.82056 12.3212 3.57918C11.8062 3.97541 11.2253 4.79253 11.3731 6.44407L13.1271 25.955C13.301 27.9015 14.3012 28.5453 14.8779 28.7539ZM27.07 19.7744L20.3385 19.6018L16.163 24.884L14.5865 7.3324L27.07 19.7744Z" fill="#161819"/>
</g>
<defs>
<filter id="filter0_d" x="0.231222" y="0.526253" width="38.4804" height="38.4737" filterUnits="userSpaceOnUse" color-interpolation-filters="sRGB">
<feFlood flood-opacity="0" result="BackgroundImageFix"/>
<feColorMatrix in="SourceAlpha" type="matrix" values="0 0 0 0 0 0 0 0 0 0 0 0 0 0 0 0 0 0 127 0"/>
<feOffset dy="2"/>
<feGaussianBlur stdDeviation="2"/>
<feColorMatrix type="matrix" values="0 0 0 0 1 0 0 0 0 1 0 0 0 0 1 0 0 0 0.25 0"/>
<feBlend mode="normal" in2="BackgroundImageFix" result="effect1_dropShadow"/>
<feBlend mode="normal" in="SourceGraphic" in2="effect1_dropShadow" result="shape"/>
</filter>
</defs>
</svg>

<svg xmlns="http://www.w3.org/2000/svg" width="39" height="39" fill="none"><g filter="url(#A)"><path d="M14.878 28.754c.518.187 1.866.433 3.242-1.3l3.7-4.68 5.966.15c2.046.05 2.778-.94 3.033-1.537s.466-1.81-.984-3.255L15.96 4.294c-1.26-1.25-2.657-1.474-3.638-.715-.515.396-1.096 1.213-.948 2.865l1.754 19.51c.174 1.947 1.174 2.6 1.75 2.8zm12.192-8.98l-6.732-.173-4.175 5.282-1.577-17.552L27.07 19.774z" fill="#161819"/></g><defs><filter id="A" x=".231" y=".526" width="38.48" height="38.474" filterUnits="userSpaceOnUse" color-interpolation-filters="sRGB"><feFlood flood-opacity="0" result="A"/><feColorMatrix in="SourceAlpha" values="0 0 0 0 0 0 0 0 0 0 0 0 0 0 0 0 0 0 127 0"/><feOffset dy="2"/><feGaussianBlur stdDeviation="2"/><feColorMatrix values="0 0 0 0 1 0 0 0 0 1 0 0 0 0 1 0 0 0 0.25 0"/><feBlend in2="A"/><feBlend in="SourceGraphic"/></filter></defs></svg>
